assets/icons/ieee.svg

<?xml version="1.0" encoding="UTF-8"?>
<!-- Generated by Pixelmator Pro 3.6.14 -->
<svg width="152" height="150" viewBox="0 0 152 150" xmlns="http://www.w3.org/2000/svg">
    <path id="Path" fill="#1a1918" stroke="none" d="M 71.458 87.637001 C 71.043999 95.622002 70.942001 103.012001 70.350998 111.016998 C 73.511002 111.304001 77.078003 111.580002 80.447998 111.088997 L 79.440002 88.774002 L 79.263 87.711998 C 76.696999 87.811996 74.267998 87.915001 71.457001 87.637001 M 51.720001 65.213997 C 47.827 67.165001 42.099998 70.113998 42.731998 75.453003 C 43.566002 78.367996 46.722 80.251999 49.220001 81.449997 C 63.025002 87.532997 81.351997 87.739998 95.927002 83.199997 C 99.525002 81.813004 104.356003 79.802002 105.016998 75.392998 C 104.977997 71.750999 101.122002 69.458 98.351997 68.063004 L 98.351997 67.889999 C 99.318001 67.509003 100.429001 67.165001 101.429001 67.059998 L 101.429001 66.962997 C 96.547997 66.087997 91.834 64.810997 87.106003 63.561005 C 88.015999 65.636002 88.674004 67.823997 89.432999 69.981003 C 90.852997 69.526001 92.309998 69.181 93.843002 68.971001 C 96.335999 69.942001 99.906998 71.331001 100.261002 74.447998 C 100.538002 77.363998 97.347 78.783997 95.332001 79.968002 C 84.640999 83.858002 72.612 84.237999 61.462002 81.279999 C 58.382 80.309998 53.938 79.064003 53.556 75.141998 C 55.742001 69.980003 61.396 68.904999 66.117996 67.652 C 63.691002 66.087997 61.223 64.704002 58.870998 62.964005 C 56.331001 63.104004 54.011002 64.216003 51.720001 65.213997 M 75.339996 34.065002 L 73.956001 38.507996 L 67.015999 58.387001 C 68.753998 58.563995 70.905998 58.387001 72.612 58.563995 L 72.612 58.727997 L 71.597 81.213997 L 71.772003 81.449997 C 73.991997 81.667999 76.764 81.778999 79.027 81.392998 L 79.027 81.039001 L 78.121002 59.229004 L 78.257004 58.490997 L 84.362999 58.387001 C 81.318001 50.339996 78.362999 42.212006 75.518997 34.065002 Z M 72.114998 24.076996 C 77.221001 20.598999 81.802002 25.461998 85.758003 28.240997 C 101.054001 40.553001 115.487999 54.645996 126.487999 70.560997 C 127.873001 72.613998 128.5 75.803001 127.257004 78.126999 C 124.405998 82.883003 120.557999 87.223999 116.911003 91.632004 L 116.911003 91.873001 C 107.817001 101.553001 98.212997 111.504997 87.834999 119.703003 C 82.769997 122.785004 78.121002 129.516006 71.597 125.346001 C 56.742001 114.490997 42.527 100.995003 30.476999 86.519997 C 28.434 83.337997 25.243999 80.730003 23.823 77.120003 C 21.84 72.233002 26.212 68.725998 28.712999 65.044998 C 41 49.891998 56.259998 35.033005 72.115997 24.076996 M 84.917999 9.604996 L 79.264 1.591995 C 78.57 1.169998 77.707001 0.470001 76.940002 0.264999 C 75.273003 -0.457993 73.474998 0.417007 72.113998 1.449005 L 61.883999 14.774002 C 45.470001 35.102005 26.040001 54.083 4.843 68.633003 C 3.168 69.942001 0.677 71.220001 0.158 73.377998 C -0.398 75.318001 0.613 76.919998 1.818 78.127998 C 18.792 89.819 35.02 103.698997 49.465 119.528 C 52.028999 122.222 54.108002 124.901001 56.616001 127.43 C 60.841 133.052002 65.804001 138.718994 69.688004 144.75 C 70.905998 146.022995 71.114998 148.115997 73.018997 148.735992 C 74.510002 149.251999 76.350998 149.602005 77.773003 148.735992 L 79.186996 147.315994 C 96.75 122.435997 119.025002 100.089996 143.912003 82.050003 C 146.401993 79.824997 151.160995 78.998001 151.229004 74.869003 C 151.052002 72.963997 149.942993 71.086998 148.307007 70.046997 L 147.899994 69.980003 C 135.093002 61.268005 123.160004 51.415001 111.917999 40.237 L 99.495003 27.260002 C 94.461998 21.679993 89.570999 15.5 84.917999 9.604996 M 70.279999 21.018997 C 75.273003 17.132996 81.556 20.360001 85.757004 23.934998 C 90.156998 27.298004 94.739998 31.109001 98.763 35.002998 L 99.494003 35.423004 C 110.634003 45.759003 120.978996 57.246002 129.477997 69.389999 C 130.856003 71.502998 132.074005 73.898003 131.304001 76.703003 C 128.470001 83.788002 122.710999 89.434998 117.676003 95.623001 C 106.781998 107.348 95.290001 118.694 82.426003 127.746002 C 79.823997 129.585999 76.313004 131.285995 73.195999 129.826004 C 63.726002 124.869003 55.741001 116.749001 47.452999 109.350998 C 37.841 100.438004 28.194 90.060997 20.909 79.205002 C 19.826 77.681999 19.521 75.803001 19.552999 73.793999 C 20.489 70.046997 23.056999 66.962997 25.486 63.804001 C 34.094002 52.834 44.638 42.428001 55.285999 32.921997 C 55.532001 32.679001 55.986 32.160004 56.372002 31.913002 C 60.945 27.959 65.487999 24.459 70.279999 21.018997"/>
</svg>

<svg xmlns="http://www.w3.org/2000/svg" width="512" height="150" viewBox="0 0 512 150">
	<path fill="#1a1918" d="M170.746 19.748h31.325v113.084h-31.325zm47.762 113.084V19.748h86.142v21.925h-54.818v23.334h50.429v21.929h-50.429v23.961h54.818v21.935zm103.692 0V19.748h86.12v21.925h-54.803v23.334h50.412v21.929h-50.412v23.961h54.803v21.935zm103.66 0V19.748h86.141v21.925h-54.798v23.334h50.416v21.929h-50.416v23.961H512v21.935zM71.458 87.637c-.414 7.985-.516 15.375-1.107 23.38c3.16.287 6.727.563 10.097.072L79.44 88.774l-.177-1.062c-2.566.1-4.995.203-7.806-.075M51.72 65.214c-3.893 1.951-9.62 4.9-8.988 10.239c.834 2.915 3.99 4.799 6.488 5.997c13.805 6.083 32.132 6.29 46.707 1.75c3.598-1.387 8.429-3.398 9.09-7.807c-.039-3.642-3.895-5.935-6.665-7.33v-.173c.966-.381 2.077-.725 3.077-.83v-.097c-4.881-.875-9.595-2.152-14.323-3.402c.91 2.075 1.568 4.263 2.327 6.42c1.42-.455 2.877-.8 4.41-1.01c2.493.971 6.064 2.36 6.418 5.477c.277 2.916-2.914 4.336-4.929 5.52c-10.691 3.89-22.72 4.27-33.87 1.312c-3.08-.97-7.524-2.216-7.906-6.138c2.186-5.162 7.84-6.237 12.562-7.49c-2.427-1.564-4.895-2.948-7.247-4.688c-2.54.14-4.86 1.252-7.151 2.25m23.62-31.149l-1.384 4.443l-6.94 19.879c1.738.177 3.89 0 5.596.177v.164l-1.015 22.486l.175.236c2.22.218 4.992.329 7.255-.057v-.354l-.906-21.81l.136-.738l6.106-.104c-3.045-8.047-6-16.175-8.844-24.322zm-3.225-9.988c5.106-3.478 9.687 1.385 13.643 4.164c15.296 12.312 29.73 26.405 40.73 42.32c1.385 2.053 2.012 5.242.769 7.566c-2.851 4.756-6.699 9.097-10.346 13.505v.241c-9.094 9.68-18.698 19.632-29.076 27.83c-5.065 3.082-9.714 9.813-16.238 5.643c-14.855-10.855-29.07-24.351-41.12-38.826c-2.043-3.182-5.233-5.79-6.654-9.4c-1.983-4.887 2.389-8.394 4.89-12.075C41 49.892 56.26 35.033 72.116 24.077M84.918 9.605l-5.654-8.013C78.57 1.17 77.707.47 76.94.265c-1.667-.723-3.465.152-4.826 1.184l-10.23 13.325C45.47 35.102 26.04 54.083 4.843 68.633C3.168 69.942.677 71.22.158 73.378c-.556 1.94.455 3.542 1.66 4.75c16.974 11.691 33.202 25.571 47.647 41.4c2.564 2.694 4.643 5.373 7.151 7.902c4.225 5.622 9.188 11.289 13.072 17.32c1.218 1.273 1.427 3.366 3.331 3.986c1.491.516 3.332.866 4.754 0l1.414-1.42c17.563-24.88 39.838-47.226 64.725-65.266c2.49-2.225 7.249-3.052 7.317-7.181c-.177-1.905-1.286-3.782-2.922-4.822l-.407-.067c-12.807-8.712-24.74-18.565-35.982-29.743L99.495 27.26c-5.033-5.58-9.924-11.76-14.577-17.655M70.28 21.019c4.993-3.886 11.276-.659 15.477 2.916c4.4 3.363 8.983 7.174 13.006 11.068l.731.42c11.14 10.336 21.485 21.823 29.984 33.967c1.378 2.113 2.596 4.508 1.826 7.313c-2.834 7.085-8.593 12.732-13.628 18.92c-10.894 11.725-22.386 23.071-35.25 32.123c-2.602 1.84-6.113 3.54-9.23 2.08c-9.47-4.957-17.455-13.077-25.743-20.475c-9.612-8.913-19.259-19.29-26.544-30.146c-1.083-1.523-1.388-3.402-1.356-5.411c.936-3.747 3.504-6.831 5.933-9.99c8.608-10.97 19.152-21.376 29.8-30.882c.246-.243.7-.762 1.086-1.009c4.573-3.954 9.116-7.454 13.908-10.894" />
</svg>
